www/assets/icons/hdr_strong.svg

<svg xmlns="http://www.w3.org/2000/svg" width="24" height="24" viewBox="0 0 24 24" fill='currentColor'><path d="M17 6c-3.31 0-6 2.69-6 6s2.69 6 6 6 6-2.69 6-6-2.69-6-6-6M5 8c-2.21 0-4 1.79-4 4s1.79 4 4 4 4-1.79 4-4-1.79-4-4-4m0 6c-1.1 0-2-.9-2-2s.9-2 2-2 2 .9 2 2-.9 2-2 2"/></svg>

<svg width="24" height="24" viewBox="0 0 24 24" xmlns="http://www.w3.org/2000/svg" fill='currentColor'><path d="M17 6C13.69 6 11 8.69 11 12C11 15.31 13.69 18 17 18C20.31 18 23 15.31 23 12C23 8.69 20.31 6 17 6ZM5 8C2.79 8 1 9.79 1 12C1 14.21 2.79 16 5 16C7.21 16 9 14.21 9 12C9 9.79 7.21 8 5 8ZM5 14C3.9 14 3 13.1 3 12C3 10.9 3.9 10 5 10C6.1 10 7 10.9 7 12C7 13.1 6.1 14 5 14Z"/></svg>
